X:7682
T:Trip to Paris,A. HSJJ.136
O:england
M:6/8
L:1/8
S:HSJ Jackson,Wyresdale,Lancs.1823
R:Jig
A:Lancashire
H:1823
K:A
E|A2A Ace|A2A ABc|d2B BcA|G2E EFG|A2A e2c|A2Af2d|F2B GFG|A3A2:|
|:A|a2Ag2A|f2Ae2A|F2B BcA|G2BB2e|afa geg|fdf ecA|FdB GEG|A3A2:|]


